src/assets-svg/global-search.svg

<svg width="17" height="17" viewBox="0 0 17 17" fill="none" xmlns="http://www.w3.org/2000/svg">
<path d="M8.49996 16.1149C4.29954 16.1149 0.885376 12.7007 0.885376 8.50033C0.885376 4.29991 4.29954 0.885742 8.49996 0.885742C12.7004 0.885742 16.1145 4.29991 16.1145 8.50033C16.1145 8.79074 15.8737 9.03158 15.5833 9.03158C15.2929 9.03158 15.052 8.79074 15.052 8.50033C15.052 4.88783 12.1125 1.94824 8.49996 1.94824C4.88746 1.94824 1.94788 4.88783 1.94788 8.50033C1.94788 12.1128 4.88746 15.0524 8.49996 15.0524C8.79038 15.0524 9.03121 15.2932 9.03121 15.5837C9.03121 15.8741 8.79038 16.1149 8.49996 16.1149Z" fill="#6F757E"/>
<path d="M6.37517 15.4062H5.66684C5.37642 15.4062 5.13559 15.1654 5.13559 14.875C5.13559 14.5846 5.36225 14.3508 5.65267 14.3438C4.54058 10.5471 4.54058 6.45292 5.65267 2.65625C5.36933 2.64917 5.13559 2.41542 5.13559 2.125C5.13559 1.83458 5.37642 1.59375 5.66684 1.59375H6.37517C6.54517 1.59375 6.70809 1.67875 6.80725 1.81333C6.90642 1.955 6.93476 2.13208 6.87809 2.29499C5.54642 6.29708 5.54642 10.71 6.87809 14.7121C6.93476 14.875 6.90642 15.0521 6.80725 15.1938C6.70809 15.3354 6.54517 15.4062 6.37517 15.4062Z" fill="#6F757E"/>
<path d="M11.6591 9.03116C11.3687 9.03116 11.1278 8.79033 11.1278 8.49991C11.1278 6.38908 10.7878 4.29949 10.122 2.29491C10.0299 2.01866 10.1787 1.71406 10.4549 1.62198C10.7312 1.5299 11.0357 1.67867 11.1278 1.95492C11.8291 4.06575 12.1903 6.26866 12.1903 8.49991C12.1903 8.79033 11.9495 9.03116 11.6591 9.03116Z" fill="#6F757E"/>
<path d="M8.5 12.19C6.51667 12.19 4.55458 11.9067 2.65625 11.3471C2.64917 11.6304 2.41542 11.8642 2.125 11.8642C1.83458 11.8642 1.59375 11.6233 1.59375 11.3329V10.6246C1.59375 10.4546 1.67875 10.2917 1.81333 10.1925C1.955 10.0933 2.13209 10.065 2.295 10.1216C4.29959 10.7875 6.38917 11.1275 8.5 11.1275C8.79042 11.1275 9.03125 11.3683 9.03125 11.6588C9.03125 11.9492 8.79042 12.19 8.5 12.19Z" fill="#6F757E"/>
<path d="M14.8751 6.90582C14.8185 6.90582 14.7618 6.89875 14.7051 6.8775C10.7031 5.54584 6.29015 5.54584 2.28806 6.8775C2.01181 6.96959 1.70723 6.82082 1.61515 6.54457C1.52306 6.26832 1.67182 5.96372 1.94807 5.87164C6.16973 4.46206 10.8164 4.46206 15.031 5.87164C15.3072 5.96372 15.456 6.26832 15.3639 6.54457C15.3072 6.76415 15.0947 6.90582 14.8751 6.90582Z" fill="#6F757E"/>
<path d="M12.8917 15.6896C11.3475 15.6896 10.0938 14.4358 10.0938 12.8917C10.0938 11.3475 11.3475 10.0938 12.8917 10.0938C14.4358 10.0938 15.6896 11.3475 15.6896 12.8917C15.6896 14.4358 14.4358 15.6896 12.8917 15.6896ZM12.8917 11.1562C11.9354 11.1562 11.1562 11.9354 11.1562 12.8917C11.1562 13.8479 11.9354 14.6271 12.8917 14.6271C13.8479 14.6271 14.6271 13.8479 14.6271 12.8917C14.6271 11.9354 13.8479 11.1562 12.8917 11.1562Z" fill="#6F757E"/>
<path d="M15.5833 16.1148C15.4487 16.1148 15.3141 16.0652 15.2079 15.959L14.4995 15.2506C14.2941 15.0452 14.2941 14.7052 14.4995 14.4998C14.7049 14.2943 15.0449 14.2943 15.2504 14.4998L15.9587 15.2081C16.1641 15.4135 16.1641 15.7536 15.9587 15.959C15.8524 16.0652 15.7179 16.1148 15.5833 16.1148Z" fill="#6F757E"/>
</svg>

<svg width="17" height="17" fill="none" xmlns="http://www.w3.org/2000/svg"><path d="M8.5 16.115A7.621 7.621 0 0 1 .885 8.5C.885 4.3 4.3.886 8.5.886A7.62 7.62 0 0 1 16.114 8.5c0 .29-.24.532-.53.532a.535.535 0 0 1-.532-.532A6.56 6.56 0 0 0 8.5 1.948 6.56 6.56 0 0 0 1.948 8.5 6.56 6.56 0 0 0 8.5 15.052c.29 0 .531.241.531.532 0 .29-.24.53-.531.53Z" fill="#6F757E"/><path d="M6.375 15.406h-.708a.535.535 0 0 1-.531-.531c0-.29.226-.524.517-.531a20.889 20.889 0 0 1 0-11.688.532.532 0 0 1-.517-.531c0-.29.24-.531.53-.531h.71a.532.532 0 0 1 .503.701 19.797 19.797 0 0 0 0 12.417.518.518 0 0 1-.503.694ZM11.66 9.031a.535.535 0 0 1-.532-.531c0-2.11-.34-4.2-1.006-6.205a.533.533 0 0 1 .333-.673.533.533 0 0 1 .673.333A20.73 20.73 0 0 1 12.19 8.5c0 .29-.24.531-.53.531Z" fill="#6F757E"/><path d="M8.5 12.19c-1.983 0-3.945-.283-5.844-.843a.532.532 0 0 1-.531.517.535.535 0 0 1-.531-.531v-.708c0-.17.085-.333.22-.432a.532.532 0 0 1 .481-.071A19.66 19.66 0 0 0 8.5 11.127c.29 0 .531.241.531.532 0 .29-.24.531-.531.531ZM14.875 6.906a.477.477 0 0 1-.17-.028 19.796 19.796 0 0 0-12.417 0 .533.533 0 0 1-.673-.333.533.533 0 0 1 .333-.673 20.767 20.767 0 0 1 13.083 0 .533.533 0 0 1 .333.673.502.502 0 0 1-.489.36ZM12.892 15.69a2.8 2.8 0 0 1-2.798-2.798 2.8 2.8 0 0 1 2.798-2.798 2.8 2.8 0 0 1 2.798 2.798 2.8 2.8 0 0 1-2.798 2.798Zm0-4.534c-.957 0-1.736.78-1.736 1.736s.78 1.735 1.736 1.735 1.735-.78 1.735-1.735c0-.957-.78-1.736-1.735-1.736Z" fill="#6F757E"/><path d="M15.583 16.115a.525.525 0 0 1-.375-.156l-.709-.708a.534.534 0 0 1 0-.751.534.534 0 0 1 .751 0l.709.708a.535.535 0 0 1 0 .751.526.526 0 0 1-.376.156Z" fill="#6F757E"/></svg>
